X: 30848
T: Out Of The Air
R: jig
M: 6/8
K: Aminor
|:A2e edB|dee edB|Gdd dBd|edB deg|
A2e edB|dee edB|GdB dee|edB A2e:|
a2e edB|dee edB|Gdd dBd|edB deg|
a2e edB|dee edB|GdB dee|edB A2e|
a2e edB|dee edB|Gdd dBd|edB deg|
A2e edB|dee edB|GdB dee|edB A2||

